X: 39
T: Steamboat Bill
M:2/4
L:1/8
S: Viola "Mom" Ruth - Pioneer Western Folk Tunes (1948)
Z:AK/Fiddler's Companion
K:G
(3D/E/F/|G/G/G/G/ B/dB/|c/B/c/A/ d3 (3D/E/F/|G/G/G/G/ B/dB/|
AF D(3D/E/F/|G/G/G/G/ B/B/A/A/|G>E G>A|B/_B/=B/_B/ =B/dB/|
B/=BD/ G3||
|:{A_B}=B>D G>A|B/_B/=B/_B/ =B<d|
{A_B}=B>D G>(Bc/)|d/e/d/B/ A2|{A_B}=B>D G>(Bc/)|
B/_B/=B/_B/ =B<d|[c/e/][c/e/][c/e/][c/e/] d/B/G/A/|B/G/A G3:|

%%sep 1 1 500
